usr/share/icons/biglinux-icons-material-dark/16/actions/archive-remove.svg

<svg version="1.1" viewBox="0 0 16 16" xmlns="http://www.w3.org/2000/svg">
 <style id="current-color-scheme" type="text/css">.ColorScheme-Text{color:#dedede;}.ColorScheme-NegativeText{color:#da4453;}</style>
 <g>
  <path d="m7 2v1h1v1h1v-1h-1v-1zm1 2h-1v1h1zm0 1v1h1v-1zm0 1h-1v2h2v-1h-1z" class="ColorScheme-Text" fill="currentColor" />
  <path d="m3 1c-1.108 0-2 0.892-2 2v10c0 1.108 0.892 2 2 2h5.7617a4.5 4.5 0 0 1-0.49805-1h-5.2637c-0.554 0-1-0.446-1-1v-10c0-0.554 0.446-1 1-1h10c0.554 0 1 0.446 1 1v5.2637a4.5 4.5 0 0 1 1 0.49609v-5.7598c0-1.108-0.892-2-2-2z" class="ColorScheme-Text" fill="currentColor" />
  <path d="m12.5 9c-1.933 0-3.5 1.567-3.5 3.5s1.567 3.5 3.5 3.5 3.5-1.567 3.5-3.5-1.567-3.5-3.5-3.5zm-2.5 3h5v1h-5v-1z" class="ColorScheme-NegativeText" fill="currentColor" />
 </g>
</svg>

<svg xmlns="http://www.w3.org/2000/svg" viewBox="0 0 16 16">
<style id="current-color-scheme" type="text/css">
.ColorScheme-Text{color:#dedede}.ColorScheme-NegativeText{color:#da4453}
</style>
<path fill="currentColor" d="M7 2v1h1v1h1V3H8V2zm1 2H7v1h1zm0 1v1h1V5zm0 1H7v2h2V7H8z" class="ColorScheme-Text"/>
<path fill="currentColor" d="M3 1c-1.108 0-2 .892-2 2v10c0 1.108.892 2 2 2h5.762a4.5 4.5 0 0 1-.498-1H3c-.554 0-1-.446-1-1V3c0-.554.446-1 1-1h10c.554 0 1 .446 1 1v5.264a4.5 4.5 0 0 1 1 .496V3c0-1.108-.892-2-2-2z" class="ColorScheme-Text"/>
<path fill="currentColor" d="M12.5 9a3.5 3.5 0 1 0 0 7 3.5 3.5 0 0 0 0-7M10 12h5v1h-5z" class="ColorScheme-NegativeText"/>
</svg>
